svg/24/chapter-down-to-bottom--filled.svg

<svg width="24" height="24" viewBox="0 0 24 24" fill="currentColor" xmlns="http://www.w3.org/2000/svg"><path d="M14 3.75C14 3.33579 14.3358 3 14.75 3H20.25C20.6642 3 21 3.33579 21 3.75C21 4.16421 20.6642 4.5 20.25 4.5H14.75C14.3358 4.5 14 4.16421 14 3.75Z"/><path d="M14 9.25C14 8.83579 14.3358 8.5 14.75 8.5H20.25C20.6642 8.5 21 8.83579 21 9.25C21 9.66421 20.6642 10 20.25 10H14.75C14.3358 10 14 9.66421 14 9.25Z"/><path d="M3 14.75C3 14.3358 3.33579 14 3.75 14H12.0218C11.7253 14.4632 11.4858 14.9665 11.3135 15.5H3.75C3.33579 15.5 3 15.1642 3 14.75Z"/><path d="M11.8448 20.7069C11.6293 20.3276 11.4509 19.9246 11.3144 19.5027C11.2932 19.5009 11.2717 19.5 11.25 19.5H3.75C3.33579 19.5 3 19.8358 3 20.25C3 20.6642 3.33579 21 3.75 21H11.25C11.4923 21 11.7077 20.8851 11.8448 20.7069Z"/><path d="M3 5C3 3.89543 3.89543 3 5 3H8C9.10457 3 10 3.89543 10 5V8C10 9.10457 9.10457 10 8 10H5C3.89543 10 3 9.10457 3 8V5Z"/><path fill-rule="evenodd" clip-rule="evenodd" d="M23 17.5C23 20.5376 20.5376 23 17.5 23C14.4624 23 12 20.5376 12 17.5C12 14.4624 14.4624 12 17.5 12C20.5376 12 23 14.4624 23 17.5ZM17.1464 17.8536L15.1464 15.8536C14.9512 15.6583 14.9512 15.3417 15.1464 15.1464C15.3417 14.9512 15.6583 14.9512 15.8536 15.1464L17.5 16.7929L19.1464 15.1464C19.3417 14.9512 19.6583 14.9512 19.8536 15.1464C20.0488 15.3417 20.0488 15.6583 19.8536 15.8536L17.8536 17.8536C17.6583 18.0488 17.3417 18.0488 17.1464 17.8536ZM15 19.5C15 19.7761 15.2239 20 15.5 20H19.5C19.7761 20 20 19.7761 20 19.5C20 19.2239 19.7761 19 19.5 19H15.5C15.2239 19 15 19.2239 15 19.5Z"/></svg>

<svg xmlns="http://www.w3.org/2000/svg" width="24" height="24" fill="currentColor" viewBox="0 0 24 24">
  <path d="M14 3.75a.75.75 0 0 1 .75-.75h5.5a.75.75 0 0 1 0 1.5h-5.5a.75.75 0 0 1-.75-.75Zm0 5.5a.75.75 0 0 1 .75-.75h5.5a.75.75 0 0 1 0 1.5h-5.5a.75.75 0 0 1-.75-.75Zm-11 5.5a.75.75 0 0 1 .75-.75h8.272a6.471 6.471 0 0 0-.709 1.5H3.75a.75.75 0 0 1-.75-.75Zm8.845 5.957a6.467 6.467 0 0 1-.53-1.204.762.762 0 0 0-.065-.003h-7.5a.75.75 0 0 0 0 1.5h7.5a.749.749 0 0 0 .595-.293ZM3 5a2 2 0 0 1 2-2h3a2 2 0 0 1 2 2v3a2 2 0 0 1-2 2H5a2 2 0 0 1-2-2V5Z"/>
  <path fill-rule="evenodd" d="M23 17.5a5.5 5.5 0 1 1-11 0 5.5 5.5 0 0 1 11 0Zm-5.854.354-2-2a.5.5 0 0 1 .708-.708l1.646 1.647 1.646-1.647a.5.5 0 0 1 .708.708l-2 2a.5.5 0 0 1-.708 0ZM15 19.5a.5.5 0 0 0 .5.5h4a.5.5 0 0 0 0-1h-4a.5.5 0 0 0-.5.5Z" clip-rule="evenodd"/>
</svg>
